flaticon/security/scan.svg

<svg xmlns="http://www.w3.org/2000/svg" width="32" height="32" viewBox="0 0 24 24">
    <path d="M10.664062 16.746094C10.410156 16.71875 10.15625 16.683594 9.902344 16.640625 9.679688 16.601562 9.476562 16.75 9.4375 16.96875 9.402344 17.183594 9.546875 17.390625 9.765625 17.429688 10.035156 17.476562 10.3125 17.511719 10.585938 17.542969 10.597656 17.542969 10.613281 17.542969 10.625 17.542969 10.828125 17.542969 11 17.390625 11.023438 17.183594 11.046875 16.964844 10.886719 16.769531 10.664062 16.746094zM12.980469 16.746094C12.722656 16.773438 12.464844 16.789062 12.207031 16.796875 11.988281 16.804688 11.816406 16.992188 11.824219 17.210938 11.832031 17.429688 12.007812 17.597656 12.222656 17.597656 12.226562 17.597656 12.230469 17.597656 12.238281 17.597656 12.511719 17.589844 12.789062 17.570312 13.0625 17.542969 13.28125 17.519531 13.441406 17.320312 13.417969 17.101562 13.394531 16.882812 13.195312 16.71875 12.980469 16.746094zM8.402344 16.273438C8.15625 16.199219 7.914062 16.109375 7.671875 16.015625 7.46875 15.933594 7.234375 16.035156 7.15625 16.242188 7.074219 16.445312 7.171875 16.679688 7.378906 16.757812 7.636719 16.859375 7.898438 16.953125 8.160156 17.039062 8.199219 17.050781 8.238281 17.058594 8.28125 17.058594 8.449219 17.058594 8.605469 16.949219 8.660156 16.777344 8.726562 16.566406 8.609375 16.34375 8.402344 16.273438zM4.132812 14.710938C4.246094 14.710938 4.359375 14.664062 4.4375 14.570312 4.578125 14.398438 4.558594 14.148438 4.390625 14.003906L3.777344 13.488281C3.609375 13.347656 3.355469 13.367188 3.214844 13.539062 3.070312 13.707031 3.09375 13.957031 3.261719 14.101562L3.875 14.617188C3.949219 14.679688 4.039062 14.710938 4.132812 14.710938zM5.886719 16.046875C5.949219 16.082031 6.019531 16.097656 6.085938 16.097656 6.222656 16.097656 6.359375 16.023438 6.433594 15.894531 6.542969 15.703125 6.472656 15.457031 6.28125 15.347656 6.058594 15.222656 5.839844 15.089844 5.625 14.945312 5.441406 14.824219 5.191406 14.875 5.070312 15.058594 4.949219 15.242188 5 15.492188 5.183594 15.613281 5.410156 15.765625 5.648438 15.910156 5.886719 16.046875zM15.242188 16.273438C15 16.351562 14.75 16.421875 14.5 16.480469 14.285156 16.535156 14.15625 16.75 14.207031 16.964844 14.253906 17.148438 14.414062 17.269531 14.59375 17.269531 14.625 17.269531 14.660156 17.265625 14.691406 17.257812 14.957031 17.191406 15.226562 17.117188 15.488281 17.035156 15.699219 16.964844 15.8125 16.742188 15.746094 16.53125 15.679688 16.320312 15.453125 16.203125 15.242188 16.273438zM16.851562 16.460938C16.910156 16.460938 16.96875 16.449219 17.023438 16.421875 17.273438 16.304688 17.519531 16.175781 17.757812 16.039062 17.949219 15.929688 18.015625 15.6875 17.910156 15.492188 17.800781 15.300781 17.554688 15.234375 17.363281 15.34375 17.140625 15.46875 16.910156 15.589844 16.679688 15.703125 16.480469 15.796875 16.394531 16.035156 16.492188 16.234375 16.558594 16.378906 16.703125 16.460938 16.851562 16.460938zM19.136719 15.125C19.269531 15.023438 19.402344 14.917969 19.535156 14.808594 19.570312 14.777344 19.601562 14.746094 19.632812 14.714844L19.78125 14.570312C19.9375 14.414062 19.9375 14.160156 19.78125 14.003906 19.625 13.847656 19.371094 13.847656 19.214844 14.003906L19.070312 14.148438C19.054688 14.164062 19.039062 14.179688 19.019531 14.191406 18.898438 14.292969 18.773438 14.394531 18.648438 14.492188 18.472656 14.625 18.441406 14.875 18.574219 15.050781 18.652344 15.152344 18.773438 15.207031 18.894531 15.207031 18.976562 15.207031 19.0625 15.179688 19.136719 15.125zM13.457031 15.058594C13.222656 15.128906 12.976562 15.179688 12.730469 15.214844 12.511719 15.246094 12.359375 15.449219 12.390625 15.667969 12.417969 15.867188 12.589844 16.011719 12.789062 16.011719 12.804688 16.011719 12.824219 16.011719 12.84375 16.007812 13.125 15.96875 13.410156 15.90625 13.679688 15.828125 13.894531 15.765625 14.015625 15.542969 13.953125 15.332031 13.894531 15.121094 13.671875 15 13.457031 15.058594zM9.175781 14.441406C8.96875 14.308594 8.769531 14.160156 8.582031 13.996094 8.414062 13.851562 8.164062 13.871094 8.019531 14.039062 7.875 14.207031 7.894531 14.457031 8.058594 14.601562 8.277344 14.789062 8.507812 14.960938 8.746094 15.113281 8.8125 15.15625 8.886719 15.179688 8.960938 15.179688 9.09375 15.179688 9.222656 15.113281 9.296875 14.992188 9.417969 14.808594 9.363281 14.558594 9.175781 14.441406zM11.25 15.214844C11.003906 15.179688 10.761719 15.125 10.523438 15.054688 10.3125 14.992188 10.089844 15.113281 10.027344 15.328125 9.964844 15.539062 10.085938 15.761719 10.300781 15.824219 10.574219 15.902344 10.855469 15.964844 11.136719 16.003906 11.15625 16.007812 11.175781 16.007812 11.195312 16.007812 11.390625 16.007812 11.5625 15.863281 11.589844 15.664062 11.621094 15.445312 11.46875 15.246094 11.25 15.214844zM15.402344 14.007812C15.214844 14.167969 15.015625 14.316406 14.808594 14.449219 14.621094 14.570312 14.566406 14.816406 14.683594 15.003906 14.761719 15.121094 14.890625 15.1875 15.023438 15.1875 15.09375 15.1875 15.171875 15.167969 15.238281 15.125 15.476562 14.972656 15.707031 14.800781 15.925781 14.613281 16.089844 14.472656 16.109375 14.21875 15.96875 14.050781 15.824219 13.882812 15.570312 13.863281 15.402344 14.007812zM.800781 8C1.019531 8 1.199219 7.820312 1.199219 7.601562L1.199219 1.199219 7.601562 1.199219C7.820312 1.199219 8 1.019531 8 .800781 8 .578125 7.820312.398438 7.601562.398438L.398438.398438.398438 7.601562C.398438 7.820312.578125 8 .800781 8zM23.199219 16.398438C22.980469 16.398438 22.800781 16.578125 22.800781 16.800781L22.800781 22.800781 16.800781 22.800781C16.578125 22.800781 16.398438 22.980469 16.398438 23.199219 16.398438 23.421875 16.578125 23.601562 16.800781 23.601562L23.601562 23.601562 23.601562 16.800781C23.601562 16.578125 23.421875 16.398438 23.199219 16.398438zM16.800781 1.199219L22.800781 1.199219 22.800781 7.601562C22.800781 7.820312 22.980469 8 23.199219 8 23.421875 8 23.601562 7.820312 23.601562 7.601562L23.601562.398438 16.800781.398438C16.578125.398438 16.398438.578125 16.398438.800781 16.398438 1.019531 16.578125 1.199219 16.800781 1.199219zM7.601562 22.800781L1.199219 22.800781 1.199219 16.800781C1.199219 16.578125 1.019531 16.398438.800781 16.398438.578125 16.398438.398438 16.578125.398438 16.800781L.398438 23.601562 7.601562 23.601562C7.820312 23.601562 8 23.421875 8 23.199219 8 22.980469 7.820312 22.800781 7.601562 22.800781zM23.601562 12L21.167969 12 19.582031 10.433594C19.550781 10.402344 19.515625 10.371094 19.484375 10.34375 19.007812 9.949219 18.503906 9.601562 17.984375 9.289062L17.984375 9.277344 17.804688 9.175781C17.792969 9.167969 17.78125 9.160156 17.769531 9.15625 17.691406 9.109375 17.609375 9.070312 17.53125 9.027344 17.328125 8.917969 17.128906 8.8125 16.921875 8.714844 16.828125 8.671875 16.730469 8.625 16.636719 8.585938 16.390625 8.476562 16.140625 8.375 15.886719 8.28125 15.855469 8.269531 15.820312 8.253906 15.785156 8.242188 15.472656 8.132812 15.15625 8.035156 14.839844 7.953125 14.816406 7.945312 14.792969 7.941406 14.773438 7.933594 14.453125 7.851562 14.132812 7.785156 13.808594 7.726562 13.808594 7.726562 13.804688 7.726562 13.800781 7.726562 12.136719 7.441406 10.429688 7.511719 8.785156 7.9375 8.726562 7.953125 8.671875 7.964844 8.617188 7.980469 8.34375 8.054688 8.070312 8.140625 7.800781 8.234375 7.761719 8.25 7.722656 8.261719 7.679688 8.273438 7.398438 8.378906 7.117188 8.496094 6.835938 8.621094 6.742188 8.664062 6.648438 8.710938 6.554688 8.757812 6.449219 8.804688 6.34375 8.851562 6.242188 8.90625L6.058594 9 6.054688 9.011719C5.351562 9.394531 4.671875 9.84375 4.039062 10.375L2.664062 11.527344C2.65625 11.535156 2.652344 11.542969 2.644531 11.550781 2.636719 11.558594 2.628906 11.558594 2.621094 11.566406 2.488281 11.691406 2.382812 11.839844 2.308594 12L.398438 12C.179688 12 0 12.179688 0 12.398438 0 12.621094.179688 12.800781.398438 12.800781L2.261719 12.800781C2.335938 12.902344 2.445312 12.96875 2.582031 12.96875 2.714844 12.96875 2.824219 12.898438 2.898438 12.800781L6.640625 12.800781C6.730469 12.976562 6.828125 13.148438 6.9375 13.316406 7.011719 13.433594 7.140625 13.496094 7.273438 13.496094 7.347656 13.496094 7.421875 13.476562 7.488281 13.433594 7.675781 13.3125 7.726562 13.066406 7.609375 12.878906 7.589844 12.855469 7.578125 12.828125 7.558594 12.800781L16.4375 12.800781C16.417969 12.832031 16.402344 12.863281 16.378906 12.894531 16.257812 13.078125 16.3125 13.328125 16.496094 13.449219 16.5625 13.492188 16.640625 13.511719 16.714844 13.511719 16.84375 13.511719 16.972656 13.449219 17.050781 13.332031 17.160156 13.160156 17.261719 12.980469 17.355469 12.800781L20.425781 12.800781 20.351562 12.875C20.195312 13.03125 20.191406 13.285156 20.347656 13.441406 20.425781 13.519531 20.53125 13.558594 20.632812 13.558594 20.734375 13.558594 20.835938 13.519531 20.914062 13.441406L21.480469 12.878906C21.480469 12.878906 21.480469 12.875 21.484375 12.875 21.503906 12.855469 21.511719 12.832031 21.527344 12.808594 21.53125 12.804688 21.53125 12.804688 21.535156 12.800781L23.601562 12.800781C23.820312 12.800781 24 12.621094 24 12.398438 24 12.179688 23.820312 12 23.601562 12zM19.019531 11.003906L20.027344 12 17.703125 12C17.894531 11.441406 17.996094 10.855469 18.019531 10.253906 18.34375 10.472656 18.664062 10.703125 18.972656 10.960938 18.988281 10.972656 19.003906 10.988281 19.019531 11.003906zM8.816406 10.546875C8.816406 10.011719 9.25 9.582031 9.78125 9.582031 10.3125 9.582031 10.746094 10.015625 10.746094 10.546875 10.746094 11.078125 10.3125 11.511719 9.78125 11.511719 9.246094 11.511719 8.816406 11.078125 8.816406 10.546875zM9.78125 8.78125C8.808594 8.78125 8.015625 9.574219 8.015625 10.546875 8.015625 11.148438 8.320312 11.679688 8.78125 12L7.15625 12C6.902344 11.375 6.765625 10.71875 6.765625 10.035156 6.765625 9.878906 6.777344 9.714844 6.796875 9.53125 6.847656 9.503906 6.902344 9.476562 6.953125 9.449219 7.042969 9.410156 7.128906 9.367188 7.21875 9.328125 7.433594 9.234375 7.652344 9.140625 7.875 9.0625 7.917969 9.042969 7.964844 9.023438 8.011719 9.007812 8.292969 8.90625 8.582031 8.816406 8.871094 8.738281 8.902344 8.730469 8.929688 8.726562 8.960938 8.71875 11.105469 8.160156 13.378906 8.25 15.484375 8.984375 15.539062 9.003906 15.589844 9.023438 15.644531 9.042969 15.863281 9.125 16.085938 9.214844 16.300781 9.3125 16.375 9.34375 16.445312 9.375 16.519531 9.40625 16.757812 9.519531 16.992188 9.636719 17.222656 9.765625 17.226562 9.855469 17.230469 9.945312 17.230469 10.035156 17.230469 10.71875 17.09375 11.375 16.839844 12L10.777344 12C11.242188 11.679688 11.546875 11.148438 11.546875 10.546875 11.546875 9.574219 10.753906 8.78125 9.78125 8.78125zM4.554688 10.988281C5.003906 10.609375 5.480469 10.28125 5.96875 9.984375 5.96875 10 5.96875 10.019531 5.96875 10.035156 5.96875 10.710938 6.078125 11.371094 6.296875 12L3.347656 12zM4.554688 10.988281"/>
</svg>

<svg xmlns="http://www.w3.org/2000/svg" width="32" height="32" viewBox="0 0 24 24">
    <path d="M10.664 16.746a12.738 12.738 0 0 1-.762-.105.4.4 0 1 0-.136.789c.27.047.546.082.82.113h.039a.399.399 0 0 0 .04-.797zm0 0M12.98 16.746a10.28 10.28 0 0 1-.773.05.4.4 0 0 0 .016.802h.015c.274-.008.551-.028.825-.055a.402.402 0 0 0 .355-.441.398.398 0 0 0-.438-.356zm0 0M8.402 16.273a10.148 10.148 0 0 1-.73-.257.395.395 0 0 0-.516.226.393.393 0 0 0 .223.516c.258.101.52.195.781.281.04.012.078.02.121.02a.4.4 0 0 0 .38-.282.405.405 0 0 0-.259-.504zm0 0M4.133 14.71a.395.395 0 0 0 .304-.14.406.406 0 0 0-.046-.566l-.614-.516a.398.398 0 0 0-.562.051.398.398 0 0 0 .047.563l.613.515a.396.396 0 0 0 .258.094zm0 0M5.887 16.047a.405.405 0 0 0 .547-.152.403.403 0 0 0-.153-.547 9.53 9.53 0 0 1-.656-.403.402.402 0 0 0-.555.114.402.402 0 0 0 .114.554c.226.153.464.297.703.434zm0 0M15.242 16.273a9.468 9.468 0 0 1-.742.207.4.4 0 1 0 .191.777c.266-.066.536-.14.797-.222a.402.402 0 0 0 .258-.504.397.397 0 0 0-.504-.258zm0 0M16.852 16.46a.381.381 0 0 0 .171-.038c.25-.117.497-.246.735-.383a.406.406 0 0 0 .152-.547.402.402 0 0 0-.547-.148c-.222.125-.453.246-.683.36a.395.395 0 0 0-.188.53c.067.145.211.227.36.227zm0 0M19.137 15.125c.133-.102.265-.207.398-.316.035-.032.067-.063.098-.094l.148-.145a.4.4 0 0 0-.566-.566l-.145.144c-.015.016-.03.032-.05.043-.122.102-.247.204-.372.301a.398.398 0 0 0 .247.715.411.411 0 0 0 .242-.082zm0 0M13.457 15.059c-.234.07-.48.12-.727.156a.4.4 0 0 0 .06.797c.015 0 .034 0 .054-.004.281-.04.566-.102.836-.18a.399.399 0 0 0 .273-.496.402.402 0 0 0-.496-.273zm0 0M9.176 14.441a5.007 5.007 0 0 1-.594-.445.4.4 0 0 0-.523.605c.218.188.449.36.687.512a.392.392 0 0 0 .55-.121.395.395 0 0 0-.12-.55zm0 0M11.25 15.215a5.13 5.13 0 0 1-.727-.16.399.399 0 0 0-.496.273.399.399 0 0 0 .274.496c.273.078.554.14.836.18.02.004.039.004.058.004a.4.4 0 0 0 .055-.793zm0 0M15.402 14.008c-.187.16-.386.308-.593.441a.404.404 0 0 0-.125.555.402.402 0 0 0 .555.121 6.15 6.15 0 0 0 .687-.512.404.404 0 0 0 .043-.562.402.402 0 0 0-.567-.043zm0 0M.8 8a.4.4 0 0 0 .4-.398V1.199h6.402a.4.4 0 0 0 0-.8H.398v7.203c0 .218.18.398.403.398zm0 0M23.2 16.398a.401.401 0 0 0-.4.403v6h-6a.401.401 0 1 0 0 .8h6.802v-6.8a.402.402 0 0 0-.403-.403zm0 0M16.8 1.2h6v6.402a.4.4 0 0 0 .802 0V.398H16.8a.401.401 0 0 0 0 .8zm0 0M7.602 22.8H1.199v-6a.401.401 0 1 0-.8 0v6.802h7.203a.401.401 0 0 0 0-.801zm0 0M23.602 12h-2.434l-1.586-1.566a2.042 2.042 0 0 0-.098-.09c-.476-.395-.98-.742-1.5-1.055v-.012l-.18-.101c-.011-.008-.023-.016-.034-.02-.079-.047-.16-.086-.239-.129-.203-.109-.402-.214-.61-.312-.093-.043-.19-.09-.284-.13-.246-.108-.496-.21-.75-.304-.032-.011-.067-.027-.102-.039a11.94 11.94 0 0 0-.945-.289c-.024-.008-.047-.012-.067-.02a13.68 13.68 0 0 0-.964-.206H13.8a11.946 11.946 0 0 0-5.016.21c-.058.016-.113.028-.168.043-.273.075-.547.16-.816.254-.04.016-.078.028-.121.04-.282.105-.563.222-.844.347-.094.043-.188.09-.281.137-.106.047-.211.094-.313.148L6.06 9l-.004.012c-.703.383-1.383.832-2.016 1.363l-1.375 1.152c-.008.008-.012.016-.02.024-.007.008-.015.008-.023.015A1.411 1.411 0 0 0 2.31 12H.399a.4.4 0 0 0 0 .8h1.863a.389.389 0 0 0 .32.169c.133 0 .242-.07.316-.168h3.743c.09.176.187.347.296.515.075.118.204.18.336.18.075 0 .149-.02.215-.062a.403.403 0 0 0 .121-.555c-.02-.024-.03-.05-.05-.078h8.879c-.02.031-.036.062-.06.094a.403.403 0 0 0 .118.554.405.405 0 0 0 .555-.117c.11-.172.21-.352.304-.531h3.07l-.073.074a.4.4 0 0 0-.004.566.405.405 0 0 0 .285.118c.101 0 .203-.04.281-.118l.566-.562s0-.004.004-.004c.02-.02.028-.043.043-.066l.008-.008h2.067a.401.401 0 0 0 0-.801zm-4.582-.996l1.007.996h-2.324a6.102 6.102 0 0 0 .317-1.746c.324.219.644.45.953.707a.468.468 0 0 1 .047.043zm-10.204-.457a.964.964 0 1 1 1.93-.001.964.964 0 0 1-1.93 0zm.965-1.766c-.972 0-1.765.793-1.765 1.766 0 .601.304 1.133.765 1.453H7.156a5.185 5.185 0 0 1-.39-1.965c0-.156.011-.32.03-.504.052-.027.106-.054.157-.082.09-.039.176-.082.266-.12.215-.095.433-.188.656-.267.043-.019.09-.039.137-.054.281-.102.57-.192.86-.27.03-.008.058-.011.089-.02a11.227 11.227 0 0 1 6.523.266l.16.059c.22.082.442.172.657.27.074.03.144.062.219.093.238.114.472.23.703.36A5.185 5.185 0 0 1 16.84 12h-6.063c.465-.32.77-.852.77-1.453 0-.973-.793-1.766-1.766-1.766zm-5.226 2.207c.449-.379.925-.707 1.414-1.004v.051c0 .676.11 1.336.328 1.965h-2.95zm0 0"/>
</svg>
